X: 305600
M: 2/4
L: 1/16
K: D
|: f2 |\
fefd ceae | dBed dcBA | BABG FAdF | GEAG GFED |\
fefd ceac | dBed dcBA | BABG FA/B/cd | BGEC D2 :|


